X: 41229
T: Troubled Child, The
R: reel
M: 4/4
K: Adorian
|:EG|A2 AB A2 GE|G2 A2 B2 gf|e2 dB A2 AB|A2 GE G2 AB|
c2 BA BA GE|G2 A2 B2 gf|ef/e/ dB A2 AB|A2 A2 A2:|
|:Bd|e2 ef e2 dB|g2 g2 a2 ag|e2 dB A2 AB|A2 GE G2 AB|
c2 BA BA GE|G2 A2 B2 gf|ef/e/ dB A2 AB|A2 A2 A2:|

